dataset/fleet/icon.svg

<?xml version="1.0" encoding="UTF-8" standalone="no"?>
<svg
   fill="none"
   viewBox="0 0 128 128"
   class="_productLogo__img_gktgtf_10"
   width="128"
   height="128"
   version="1.1"
   id="svg130"
   xmlns:xlink="http://www.w3.org/1999/xlink"
   xmlns="http://www.w3.org/2000/svg"
   xmlns:svg="http://www.w3.org/2000/svg">
  <defs
     id="defs110">
    <linearGradient
       id="linearGradient1847">
      <stop
         style="stop-color:#000000;stop-opacity:1;"
         offset="0"
         id="stop1835" />
      <stop
         style="stop-color:#ffffff;stop-opacity:1;"
         offset="0.41334832"
         id="stop1837" />
      <stop
         style="stop-color:#000000;stop-opacity:1;"
         offset="0.811014"
         id="stop1839" />
      <stop
         style="stop-color:#ffffff;stop-opacity:0.90018922;"
         offset="1"
         id="stop1843" />
    </linearGradient>
    <radialGradient
       id="__GeneratedJBProductLogos__23"
       cx="0"
       cy="0"
       r="1"
       gradientTransform="matrix(43.266445,-39.17071,52.589594,56.168267,71.060645,76.346517)"
       gradientUnits="userSpaceOnUse">
      <stop
         offset="0.771"
         stop-color="#001AFF"
         id="stop2" />
      <stop
         offset="1"
         stop-color="#8ACEFF"
         id="stop4" />
    </radialGradient>
    <radialGradient
       id="__GeneratedJBProductLogos__22"
       cx="0"
       cy="0"
       r="1"
       gradientTransform="matrix(27.966112,-16.226556,21.785295,36.305357,86.616204,54.101386)"
       gradientUnits="userSpaceOnUse">
      <stop
         offset="0.719"
         stop-color="#FA00FF"
         stop-opacity="0"
         id="stop7" />
      <stop
         offset="1"
         stop-color="#FF00D6"
         stop-opacity="0.44"
         id="stop9" />
    </radialGradient>
    <radialGradient
       id="__GeneratedJBProductLogos__21"
       cx="0"
       cy="0"
       r="1"
       gradientTransform="matrix(60.332847,69.181686,-70.354256,59.327301,44.371918,51.818502)"
       gradientUnits="userSpaceOnUse">
      <stop
         offset="0.026"
         stop-color="#8DFDFD"
         id="stop12" />
      <stop
         offset="0.271"
         stop-color="#87FBFB"
         id="stop14" />
      <stop
         offset="0.484"
         stop-color="#74D6F4"
         id="stop16" />
      <stop
         offset="0.932"
         stop-color="#0038FF"
         id="stop18" />
    </radialGradient>
    <radialGradient
       id="__GeneratedJBProductLogos__20"
       cx="0"
       cy="0"
       r="1"
       gradientTransform="matrix(-46.65276,42.425919,-43.145002,-45.875214,58.404115,59.751644)"
       gradientUnits="userSpaceOnUse">
      <stop
         offset="0.267"
         stop-color="#0500FF"
         stop-opacity="0"
         id="stop21" />
      <stop
         offset="1"
         stop-color="#0500FF"
         stop-opacity="0.15"
         id="stop23" />
    </radialGradient>
    <radialGradient
       id="__GeneratedJBProductLogos__19"
       cx="0"
       cy="0"
       r="1"
       gradientTransform="matrix(25.29168,94.116446,-95.711638,24.870152,50.648525,50.142584)"
       gradientUnits="userSpaceOnUse">
      <stop
         offset="0.42"
         stop-color="#FF00E5"
         stop-opacity="0"
         id="stop26" />
      <stop
         offset="0.774"
         stop-color="#FF00F5"
         stop-opacity="0.64"
         id="stop28" />
      <stop
         offset="0.899"
         stop-color="#BE46FF"
         stop-opacity="0.87"
         id="stop30" />
    </radialGradient>
    <radialGradient
       id="__GeneratedJBProductLogos__18"
       cx="0"
       cy="0"
       r="1"
       gradientTransform="matrix(5.2932387,43.314318,-66.578168,7.8672695,53.273548,62.525291)"
       gradientUnits="userSpaceOnUse">
      <stop
         offset="0"
         stop-color="#00B2FF"
         id="stop33" />
      <stop
         offset="0.571"
         stop-color="#74C5FF"
         id="stop35" />
      <stop
         offset="0.979"
         stop-color="#9FD7FF"
         id="stop37" />
    </radialGradient>
    <linearGradient
       id="__GeneratedJBProductLogos__17"
       x1="11.644"
       x2="82.362999"
       y1="42.431999"
       y2="43.401001"
       gradientUnits="userSpaceOnUse"
       gradientTransform="matrix(1.9354839,0,0,1.9032258,-3.7419352,-4.6129037)">
      <stop
         offset="0.432"
         stop-color="#FE62EE"
         stop-opacity="0"
         id="stop40" />
      <stop
         offset="0.818"
         stop-color="#FD3AF5"
         stop-opacity="0.47"
         id="stop42" />
    </linearGradient>
    <linearGradient
       id="__GeneratedJBProductLogos__16"
       x1="33.054001"
       x2="37.349998"
       y1="23.191"
       y2="49.344002"
       gradientUnits="userSpaceOnUse"
       gradientTransform="matrix(1.9354839,0,0,1.9032258,-3.7419352,-4.6129037)">
      <stop
         offset="0.042"
         stop-color="#0038FF"
         id="stop45" />
      <stop
         offset="0.724"
         stop-color="#48BFF1"
         stop-opacity="0.59"
         id="stop47" />
      <stop
         offset="1"
         stop-color="#74C5FF"
         stop-opacity="0"
         id="stop49" />
    </linearGradient>
    <linearGradient
       id="linearGradient92"
       x1="11.644"
       x2="82.362999"
       y1="42.431999"
       y2="43.401001"
       gradientUnits="userSpaceOnUse"
       gradientTransform="matrix(1.9354837,0,0,1.9032258,-3.7419306,-0.6129032)">
      <stop
         offset="0.432"
         stop-color="#FE62EE"
         stop-opacity="0"
         id="stop88" />
      <stop
         offset="0.818"
         stop-color="#FD3AF5"
         stop-opacity="0.47"
         id="stop90" />
    </linearGradient>
    <radialGradient
       id="__GeneratedJBProductLogos__21-6"
       cx="0"
       cy="0"
       r="1"
       gradientTransform="matrix(60.332842,69.181686,-70.35425,59.327301,44.371918,55.818502)"
       gradientUnits="userSpaceOnUse">
      <stop
         offset="0.026"
         stop-color="#8DFDFD"
         id="stop12-2" />
      <stop
         offset="0.271"
         stop-color="#87FBFB"
         id="stop14-9" />
      <stop
         offset="0.484"
         stop-color="#74D6F4"
         id="stop16-1" />
      <stop
         offset="0.932"
         stop-color="#0038FF"
         id="stop18-2" />
    </radialGradient>
    <radialGradient
       id="__GeneratedJBProductLogos__20-7"
       cx="0"
       cy="0"
       r="1"
       gradientTransform="matrix(-46.652755,42.425919,-43.144998,-45.875214,58.404114,63.751644)"
       gradientUnits="userSpaceOnUse">
      <stop
         offset="0.267"
         stop-color="#0500FF"
         stop-opacity="0"
         id="stop21-0" />
      <stop
         offset="1"
         stop-color="#0500FF"
         stop-opacity="0.15"
         id="stop23-9" />
    </radialGradient>
    <radialGradient
       id="__GeneratedJBProductLogos__19-3"
       cx="0"
       cy="0"
       r="1"
       gradientTransform="matrix(25.291677,94.116446,-95.711629,24.870152,50.648525,54.142584)"
       gradientUnits="userSpaceOnUse">
      <stop
         offset="0.42"
         stop-color="#FF00E5"
         stop-opacity="0"
         id="stop26-6" />
      <stop
         offset="0.774"
         stop-color="#FF00F5"
         stop-opacity="0.64"
         id="stop28-0" />
      <stop
         offset="0.899"
         stop-color="#BE46FF"
         stop-opacity="0.87"
         id="stop30-6" />
    </radialGradient>
    <linearGradient
       xlink:href="#linearGradient1847"
       id="linearGradient1833"
       x1="-51.773502"
       y1="23.868359"
       x2="-4.0367851"
       y2="23.868359"
       gradientUnits="userSpaceOnUse"
       gradientTransform="matrix(2.513788,0,0,2.4718918,134.14761,7.0000043)" />
  </defs>
  <path
     fill="url(#__GeneratedJBProductLogos__21)"
     d="m 123.99999,66 c 0,32.58323 -26.864509,59 -59.999992,59 C 30.864518,125 4.0000044,98.58323 4.0000044,66 4.0000044,33.416775 30.864518,7.0000003 63.999998,7.0000003 79.572901,13.931548 95.865801,39.724065 102.69032,47.784227 109.51096,55.844387 127.17031,66 118.51483,44.69529 122.2058,50.454452 123.99999,60.008646 123.99999,66 Z"
     id="path116-2"
     style="fill:url(#__GeneratedJBProductLogos__21-6);stroke-width:1.91929" />
  <path
     fill="url(#__GeneratedJBProductLogos__20)"
     d="m 123.99999,66 c 0,32.58323 -26.864509,59 -59.999992,59 C 30.864518,125 4.0000044,98.58323 4.0000044,66 4.0000044,33.416775 30.864518,7.0000003 63.999998,7.0000003 79.572901,13.931548 95.865801,39.724065 102.69032,47.784227 109.51096,55.844387 127.17031,66 118.51483,44.69529 122.2058,50.454452 123.99999,60.008646 123.99999,66 Z"
     id="path118-8"
     style="fill:url(#__GeneratedJBProductLogos__20-7);stroke-width:1.91929" />
  <path
     fill="url(#__GeneratedJBProductLogos__19)"
     d="m 123.99999,66 c 0,32.58323 -26.864509,59 -59.999992,59 C 30.864518,125 4.0000044,98.58323 4.0000044,66 4.0000044,33.416775 30.864518,7.0000003 63.999998,7.0000003 79.572901,13.931548 95.865801,39.724065 102.69032,47.784227 109.51096,55.844387 127.17031,66 118.51483,44.69529 122.2058,50.454452 123.99999,60.008646 123.99999,66 Z"
     id="path120-9"
     style="fill:url(#__GeneratedJBProductLogos__19-3);stroke-width:1.91929" />
  <path
     fill="url(#__GeneratedJBProductLogos__17)"
     d="m 123.99999,66 c 0,32.58323 -26.864509,59 -59.999992,59 C 30.864518,125 4.0000044,98.58323 4.0000044,66 4.0000044,33.416775 30.864518,7.0000003 63.999998,7.0000003 79.572901,13.931548 95.865801,39.724065 102.69032,47.784227 109.51096,55.844387 127.17031,66 118.51483,44.69529 122.2058,50.454452 123.99999,60.008646 123.99999,66 Z"
     id="path122-7"
     style="fill:url(#linearGradient92);stroke-width:1.91929" />
  <path
     id="path1525"
     style="opacity:0.4;fill:url(#linearGradient1833);stroke-width:7.47826;stroke-linecap:square;stroke-linejoin:round;stroke-miterlimit:1.5;paint-order:stroke fill markers"
     d="M 124,66.000005 C 124,98.5848 97.137071,125 63.999992,125 30.862911,125 3.9999987,98.5848 3.9999987,66.000005 c 0,-32.5848 23.2625753,-32.682952 56.3996563,-32.682952 33.137088,-2e-6 63.600335,0.09815 63.600345,32.682952 z" />
  <path
     fill="url(#__GeneratedJBProductLogos__23)"
     d="m 122.36064,54.101613 c 0,18.073033 -19.67032,32.724065 -43.935479,32.724065 -24.263226,0 -43.933549,-14.651032 -43.933549,-32.724065 0,-18.073032 19.670323,-32.724066 43.935484,-32.724066 24.263224,0 43.933544,14.651034 43.933544,32.724066 z"
     id="path112"
     style="fill:url(#__GeneratedJBProductLogos__23);stroke-width:1.91929" />
  <path
     fill="url(#__GeneratedJBProductLogos__22)"
     d="m 122.36064,54.101613 c 0,18.073033 -19.67032,32.724065 -43.935479,32.724065 -24.263226,0 -43.933549,-14.651032 -43.933549,-32.724065 0,-18.073032 19.670323,-32.724066 43.935484,-32.724066 24.263224,0 43.933544,14.651034 43.933544,32.724066 z"
     id="path114"
     style="fill:url(#__GeneratedJBProductLogos__22);stroke-width:1.91929" />
  <path
     fill="url(#__GeneratedJBProductLogos__21)"
     d="M 124,62 C 124,94.583227 97.135481,121 64,121 30.864516,121 4.0000002,94.583227 4.0000002,62 4.0000002,29.416774 30.864516,2.9999996 64,2.9999996 79.572903,9.9315473 95.865811,35.724064 102.69032,43.784226 109.51097,51.844387 127.17032,62 118.51484,40.69529 122.20581,46.454452 124,56.008646 124,62 Z"
     id="path116"
     style="fill:url(#__GeneratedJBProductLogos__21);stroke-width:1.91929" />
  <path
     fill="url(#__GeneratedJBProductLogos__20)"
     d="M 124,62 C 124,94.583227 97.135481,121 64,121 30.864516,121 4.0000002,94.583227 4.0000002,62 4.0000002,29.416774 30.864516,2.9999996 64,2.9999996 79.572903,9.9315473 95.865811,35.724064 102.69032,43.784226 109.51097,51.844387 127.17032,62 118.51484,40.69529 122.20581,46.454452 124,56.008646 124,62 Z"
     id="path118"
     style="fill:url(#__GeneratedJBProductLogos__20);stroke-width:1.91929" />
  <path
     fill="url(#__GeneratedJBProductLogos__19)"
     d="M 124,62 C 124,94.583227 97.135481,121 64,121 30.864516,121 4.0000002,94.583227 4.0000002,62 4.0000002,29.416774 30.864516,2.9999996 64,2.9999996 79.572903,9.9315473 95.865811,35.724064 102.69032,43.784226 109.51097,51.844387 127.17032,62 118.51484,40.69529 122.20581,46.454452 124,56.008646 124,62 Z"
     id="path120"
     style="fill:url(#__GeneratedJBProductLogos__19);stroke-width:1.91929" />
  <path
     fill="url(#__GeneratedJBProductLogos__17)"
     d="M 124,62 C 124,94.583227 97.135481,121 64,121 30.864516,121 4.0000002,94.583227 4.0000002,62 4.0000002,29.416774 30.864516,2.9999996 64,2.9999996 79.572903,9.9315473 95.865811,35.724064 102.69032,43.784226 109.51097,51.844387 127.17032,62 118.51484,40.69529 122.20581,46.454452 124,56.008646 124,62 Z"
     id="path122"
     style="fill:url(#__GeneratedJBProductLogos__17);stroke-width:1.91929" />
  <path
     fill="url(#__GeneratedJBProductLogos__18)"
     d="M 105.90517,70.910904 C 109.11419,85.687549 93.303225,101.5319 70.590322,106.29948 47.879354,111.06707 26.867741,102.95552 23.658709,88.180775 20.449677,73.404129 36.260645,57.559774 58.973549,52.792194 c 22.710967,-4.769485 43.722581,3.343968 46.931621,18.11871 z"
     id="path124"
     style="fill:url(#__GeneratedJBProductLogos__18);stroke-width:1.91929" />
  <path
     fill="url(#__GeneratedJBProductLogos__16)"
     d="M 105.90517,70.910904 C 109.11419,85.687549 93.303225,101.5319 70.590322,106.29948 47.879354,111.06707 26.867741,102.95552 23.658709,88.180775 20.449677,73.404129 36.260645,57.559774 58.973549,52.792194 c 22.710967,-4.769485 43.722581,3.343968 46.931621,18.11871 z"
     id="path126"
     style="fill:url(#__GeneratedJBProductLogos__16);stroke-width:1.91929" />
  <path
     fill="#d6f8f8"
     fill-opacity="0.19"
     fill-rule="evenodd"
     d="M 95.861931,90.325711 C 101.81161,84.362904 104.35097,77.650226 103.01935,71.518032 101.68774,65.383936 96.581931,60.275677 88.675484,57.224807 80.792257,54.179646 70.45871,53.347936 59.589032,55.629904 c -10.869678,2.281967 -19.954839,7.19229 -25.887096,13.134161 -5.949678,5.962806 -8.489032,12.675484 -7.15742,18.809581 1.331613,6.134096 6.43742,11.240454 14.345806,14.293224 7.88129,3.04516 18.212903,3.87688 29.084517,1.59491 10.869677,-2.28388 19.954838,-7.1923 25.887092,-13.136069 z M 70.590322,106.29948 C 93.303225,101.5319 109.11419,85.687549 105.90517,70.910904 102.69613,56.136162 81.684516,48.022709 58.973549,52.792194 36.260645,57.559774 20.449677,73.404129 23.658709,88.178872 26.867741,102.95552 47.879354,111.06707 70.590322,106.29948 Z"
     clip-rule="evenodd"
     id="path128"
     style="stroke-width:1.91929" />
</svg>

<svg xmlns="http://www.w3.org/2000/svg" xmlns:xlink="http://www.w3.org/1999/xlink" width="128" height="128" fill="none" class="_productLogo__img_gktgtf_10" viewBox="0 0 128 128"><defs><radialGradient id="k" cx="0" cy="0" r="1" gradientTransform="matrix(43.26644 -39.17071 52.5896 56.16827 71.06 76.347)" gradientUnits="userSpaceOnUse"><stop offset=".771" stop-color="#001aff"/><stop offset="1" stop-color="#8aceff"/></radialGradient><radialGradient id="l" cx="0" cy="0" r="1" gradientTransform="matrix(27.96611 -16.22656 21.7853 36.30536 86.616 54.101)" gradientUnits="userSpaceOnUse"><stop offset=".719" stop-color="#fa00ff" stop-opacity="0"/><stop offset="1" stop-color="#ff00d6" stop-opacity=".44"/></radialGradient><radialGradient id="b" cx="0" cy="0" r="1" gradientTransform="matrix(60.33285 69.18169 -70.35426 59.3273 44.372 51.819)" gradientUnits="userSpaceOnUse"><stop offset=".026" stop-color="#8dfdfd"/><stop offset=".271" stop-color="#87fbfb"/><stop offset=".484" stop-color="#74d6f4"/><stop offset=".932" stop-color="#0038ff"/></radialGradient><radialGradient id="d" cx="0" cy="0" r="1" gradientTransform="matrix(-46.65276 42.42592 -43.145 -45.87521 58.404 59.752)" gradientUnits="userSpaceOnUse"><stop offset=".267" stop-color="#0500ff" stop-opacity="0"/><stop offset="1" stop-color="#0500ff" stop-opacity=".15"/></radialGradient><radialGradient id="f" cx="0" cy="0" r="1" gradientTransform="matrix(25.29168 94.11645 -95.71164 24.87015 50.649 50.143)" gradientUnits="userSpaceOnUse"><stop offset=".42" stop-color="#ff00e5" stop-opacity="0"/><stop offset=".774" stop-color="#ff00f5" stop-opacity=".64"/><stop offset=".899" stop-color="#be46ff" stop-opacity=".87"/></radialGradient><radialGradient id="m" cx="0" cy="0" r="1" gradientTransform="matrix(5.29324 43.31432 -66.57817 7.86727 53.274 62.525)" gradientUnits="userSpaceOnUse"><stop offset="0" stop-color="#00b2ff"/><stop offset=".571" stop-color="#74c5ff"/><stop offset=".979" stop-color="#9fd7ff"/></radialGradient><radialGradient id="c" cx="0" cy="0" r="1" gradientTransform="matrix(60.33284 69.18169 -70.35425 59.3273 44.372 55.819)" gradientUnits="userSpaceOnUse"><stop offset=".026" stop-color="#8dfdfd"/><stop offset=".271" stop-color="#87fbfb"/><stop offset=".484" stop-color="#74d6f4"/><stop offset=".932" stop-color="#0038ff"/></radialGradient><radialGradient id="e" cx="0" cy="0" r="1" gradientTransform="matrix(-46.65275 42.42592 -43.145 -45.87521 58.404 63.752)" gradientUnits="userSpaceOnUse"><stop offset=".267" stop-color="#0500ff" stop-opacity="0"/><stop offset="1" stop-color="#0500ff" stop-opacity=".15"/></radialGradient><radialGradient id="g" cx="0" cy="0" r="1" gradientTransform="matrix(25.29168 94.11645 -95.71163 24.87015 50.649 54.143)" gradientUnits="userSpaceOnUse"><stop offset=".42" stop-color="#ff00e5" stop-opacity="0"/><stop offset=".774" stop-color="#ff00f5" stop-opacity=".64"/><stop offset=".899" stop-color="#be46ff" stop-opacity=".87"/></radialGradient><linearGradient id="a"><stop offset="0" style="stop-color:#000;stop-opacity:1"/><stop offset=".413" style="stop-color:#fff;stop-opacity:1"/><stop offset=".811" style="stop-color:#000;stop-opacity:1"/><stop offset="1" style="stop-color:#fff;stop-opacity:.90018922"/></linearGradient><linearGradient id="h" x1="11.644" x2="82.363" y1="42.432" y2="43.401" gradientTransform="matrix(1.93548 0 0 1.90323 -3.742 -4.613)" gradientUnits="userSpaceOnUse"><stop offset=".432" stop-color="#fe62ee" stop-opacity="0"/><stop offset=".818" stop-color="#fd3af5" stop-opacity=".47"/></linearGradient><linearGradient id="n" x1="33.054" x2="37.35" y1="23.191" y2="49.344" gradientTransform="matrix(1.93548 0 0 1.90323 -3.742 -4.613)" gradientUnits="userSpaceOnUse"><stop offset=".042" stop-color="#0038ff"/><stop offset=".724" stop-color="#48bff1" stop-opacity=".59"/><stop offset="1" stop-color="#74c5ff" stop-opacity="0"/></linearGradient><linearGradient id="i" x1="11.644" x2="82.363" y1="42.432" y2="43.401" gradientTransform="matrix(1.93548 0 0 1.90323 -3.742 -.613)" gradientUnits="userSpaceOnUse"><stop offset=".432" stop-color="#fe62ee" stop-opacity="0"/><stop offset=".818" stop-color="#fd3af5" stop-opacity=".47"/></linearGradient><linearGradient xlink:href="#a" id="j" x1="-51.774" x2="-4.037" y1="23.868" y2="23.868" gradientTransform="matrix(2.51379 0 0 2.4719 134.148 7)" gradientUnits="userSpaceOnUse"/></defs><path fill="url(#b)" d="M124 66c0 32.583-26.865 59-60 59S4 98.583 4 66 30.865 7 64 7c15.573 6.932 31.866 32.724 38.69 40.784 6.821 8.06 24.48 18.216 15.825-3.089C122.205 50.455 124 60.01 124 66" style="fill:url(#c);stroke-width:1.91929"/><path fill="url(#d)" d="M124 66c0 32.583-26.865 59-60 59S4 98.583 4 66 30.865 7 64 7c15.573 6.932 31.866 32.724 38.69 40.784 6.821 8.06 24.48 18.216 15.825-3.089C122.205 50.455 124 60.01 124 66" style="fill:url(#e);stroke-width:1.91929"/><path fill="url(#f)" d="M124 66c0 32.583-26.865 59-60 59S4 98.583 4 66 30.865 7 64 7c15.573 6.932 31.866 32.724 38.69 40.784 6.821 8.06 24.48 18.216 15.825-3.089C122.205 50.455 124 60.01 124 66" style="fill:url(#g);stroke-width:1.91929"/><path fill="url(#h)" d="M124 66c0 32.583-26.865 59-60 59S4 98.583 4 66 30.865 7 64 7c15.573 6.932 31.866 32.724 38.69 40.784 6.821 8.06 24.48 18.216 15.825-3.089C122.205 50.455 124 60.01 124 66" style="fill:url(#i);stroke-width:1.91929"/><path d="M124 66c0 32.585-26.863 59-60 59S4 98.585 4 66s23.263-32.683 56.4-32.683S124 33.415 124 66" style="opacity:.4;fill:url(#j);stroke-width:7.47826;stroke-linecap:square;stroke-linejoin:round;stroke-miterlimit:1.5;paint-order:stroke fill markers"/><path fill="url(#k)" d="M122.36 54.102c0 18.073-19.67 32.724-43.935 32.724-24.263 0-43.933-14.651-43.933-32.724s19.67-32.724 43.935-32.724c24.263 0 43.934 14.65 43.934 32.724" style="fill:url(#k);stroke-width:1.91929"/><path fill="url(#l)" d="M122.36 54.102c0 18.073-19.67 32.724-43.935 32.724-24.263 0-43.933-14.651-43.933-32.724s19.67-32.724 43.935-32.724c24.263 0 43.934 14.65 43.934 32.724" style="fill:url(#l);stroke-width:1.91929"/><path fill="url(#b)" d="M124 62c0 32.583-26.865 59-60 59S4 94.583 4 62 30.865 3 64 3c15.573 6.932 31.866 32.724 38.69 40.784 6.821 8.06 24.48 18.216 15.825-3.089C122.205 46.455 124 56.01 124 62" style="fill:url(#b);stroke-width:1.91929"/><path fill="url(#d)" d="M124 62c0 32.583-26.865 59-60 59S4 94.583 4 62 30.865 3 64 3c15.573 6.932 31.866 32.724 38.69 40.784 6.821 8.06 24.48 18.216 15.825-3.089C122.205 46.455 124 56.01 124 62" style="fill:url(#d);stroke-width:1.91929"/><path fill="url(#f)" d="M124 62c0 32.583-26.865 59-60 59S4 94.583 4 62 30.865 3 64 3c15.573 6.932 31.866 32.724 38.69 40.784 6.821 8.06 24.48 18.216 15.825-3.089C122.205 46.455 124 56.01 124 62" style="fill:url(#f);stroke-width:1.91929"/><path fill="url(#h)" d="M124 62c0 32.583-26.865 59-60 59S4 94.583 4 62 30.865 3 64 3c15.573 6.932 31.866 32.724 38.69 40.784 6.821 8.06 24.48 18.216 15.825-3.089C122.205 46.455 124 56.01 124 62" style="fill:url(#h);stroke-width:1.91929"/><path fill="url(#m)" d="M105.905 70.91c3.21 14.778-12.602 30.622-35.315 35.39-22.71 4.767-43.722-3.344-46.931-18.12-3.21-14.776 12.602-30.62 35.315-35.388 22.71-4.77 43.722 3.344 46.931 18.119" style="fill:url(#m);stroke-width:1.91929"/><path fill="url(#n)" d="M105.905 70.91c3.21 14.778-12.602 30.622-35.315 35.39-22.71 4.767-43.722-3.344-46.931-18.12-3.21-14.776 12.602-30.62 35.315-35.388 22.71-4.77 43.722 3.344 46.931 18.119" style="fill:url(#n);stroke-width:1.91929"/><path fill="#d6f8f8" fill-opacity=".19" fill-rule="evenodd" d="M95.862 90.326c5.95-5.963 8.489-12.676 7.157-18.808-1.331-6.134-6.437-11.242-14.344-14.293-7.883-3.045-18.216-3.877-29.086-1.595s-19.955 7.192-25.887 13.134c-5.95 5.963-8.49 12.676-7.157 18.81 1.331 6.134 6.437 11.24 14.345 14.293 7.882 3.045 18.213 3.877 29.085 1.595 10.87-2.284 19.955-7.193 25.887-13.136M70.59 106.299c22.713-4.767 38.524-20.611 35.315-35.388-3.209-14.775-24.22-22.888-46.931-18.119C36.26 57.56 20.45 73.404 23.659 88.18c3.209 14.777 24.22 22.888 46.931 18.12" clip-rule="evenodd" style="stroke-width:1.91929"/></svg>
